dist/img/svg/order-calculations.svg

<svg width="63" height="51" viewBox="0 0 63 51" fill="none" xmlns="http://www.w3.org/2000/svg">
<path d="M22.125 0.625031C27.9266 0.625031 33.4906 2.92971 37.593 7.03207C41.6953 11.1344 44 16.6984 44 22.5H47.125V31.875H44V44.375H22.125C16.3234 44.375 10.7594 42.0704 6.65704 37.968C2.55468 33.8656 0.25 28.3016 0.25 22.5C0.25 16.6984 2.55468 11.1344 6.65704 7.03207C10.7594 2.92971 16.3234 0.625031 22.125 0.625031ZM22.125 10C18.8098 10 15.6304 11.317 13.2862 13.6612C10.942 16.0054 9.625 19.1848 9.625 22.5C9.625 25.8152 10.942 28.9947 13.2862 31.3389C15.6304 33.6831 18.8098 35 22.125 35C25.4402 35 28.6196 33.6831 30.9638 31.3389C33.308 28.9947 34.625 25.8152 34.625 22.5C34.625 19.1848 33.308 16.0054 30.9638 13.6612C28.6196 11.317 25.4402 10 22.125 10ZM47.125 38.125H62.75V50.625H56.5V44.375H47.125V38.125Z" fill="white"/>
</svg>

<svg width="63" height="51" viewBox="0 0 63 51" fill="none" xmlns="http://www.w3.org/2000/svg"><path d="M22.125.625A21.875 21.875 0 0144 22.5h3.125v9.375H44v12.5H22.125a21.875 21.875 0 110-43.75zm0 9.375a12.5 12.5 0 100 25 12.5 12.5 0 000-25zm25 28.125H62.75v12.5H56.5v-6.25h-9.375v-6.25z" fill="#fff"/></svg>
